X: 372
T: Lesson Second
%R:
Z: 2017 John Chambers <jc:trillian.mit.edu>
B: John Treat - "Gamut for the Fifes", 1779, p.37 #2
F: https://archive.org/details/GamutFortheFifes
M: 9/8
L: 1/8
Q: "Allegro"
K: G
% - - - - - - - - - - - - - - - - - - - - - - - - -
d |\
gdB gdB cBA | GGG GGG G2A | Bcd edc BAG | AAA AAA A2D | GAB GAB cBA | Bcd Bcd 
edc | def gfe dcB | ABc edc BAG | FGA GAB ABc | Bcd cde def | gdc BAG TA3 | G6 |]
% - - - - - - - - - - - - - - - - - - - - - - - - -
